X:130
T:Roosky Polka
T:Sligo to Dublin
R:polka
D:Catherine McEvoy, Caoimh\'in \'O Raghallaigh & M\'iche\'al \'O Raghallaigh
Z:id:hn-polka-130
M:2/4
L:1/8
K:G
B/c/ | d2 de/f/ | g/f/e/d/ BG | Be dG | BA AB/c/ |
d2 de/f/ | g/f/e/d/ BG | Bd g>a |1 ba g :|2 g3 ||
|: d | Bd g>a | ba a/b/a/g/ | fd fa | gf ed |
Bd g>a | ba a/b/a/g/ | fd fa | gf g :|

